X: 4
T: A Fig For A Kiss
R: slip jig
M: 9/8
L: 1/8
K: Edor
G2B E2B B2G|F2A D2A A2F|G2B E2B B2c|1 d2B AGF E2F:|2 d2B AGF E3||g2e g2e e2g|f2d f2d def|g2e g2e e2c|d2B A2B def|g2e g2e e2g|f2d f2d def|g2e f2d e2c|d2B AGF E2F||


Tune 750	Setting 13850

